icons/vih_fill.svg

<svg width="48" height="48" viewBox="0 0 48 48" fill="none" xmlns="http://www.w3.org/2000/svg">
<path fill-rule="evenodd" clip-rule="evenodd" d="M14.8323 13.4187C17.0529 11.4931 19.8857 10.2549 22.9997 10.0352V12C22.9997 12.5523 23.4475 13 23.9997 13C24.552 13 24.9997 12.5523 24.9997 12V10.0352C28.1136 10.2549 30.9463 11.493 33.1669 13.4184L31.7779 14.8074C31.3874 15.1979 31.3874 15.8311 31.7779 16.2216C32.1685 16.6121 32.8016 16.6121 33.1921 16.2216L34.5811 14.8326C36.5066 17.0532 37.7448 19.886 37.9646 23H35.9997C35.4475 23 34.9997 23.4477 34.9997 24C34.9997 24.5523 35.4475 25 35.9997 25H37.9646C37.7448 28.1139 36.5067 30.9466 34.5813 33.1672L33.1921 31.7781C32.8016 31.3876 32.1685 31.3876 31.7779 31.7781C31.3874 32.1686 31.3874 32.8018 31.7779 33.1923L33.167 34.5814C30.9465 36.5069 28.1137 37.7451 24.9997 37.9648V36C24.9997 35.4477 24.552 35 23.9997 35C23.4475 35 22.9997 35.4477 22.9997 36V37.9648C19.8859 37.7451 17.0532 36.507 14.8327 34.5816L16.2216 33.1927C16.6121 32.8022 16.6121 32.1691 16.2216 31.7785C15.8311 31.388 15.1979 31.388 14.8074 31.7785L13.4184 33.1674C11.4929 30.9468 10.2547 28.114 10.0349 25H11.9997C12.552 25 12.9997 24.5523 12.9997 24C12.9997 23.4477 12.552 23 11.9997 23H10.0349C10.2547 19.8861 11.4927 17.0535 13.4181 14.8329L14.8074 16.2221C15.1979 16.6126 15.831 16.6126 16.2216 16.2221C16.6121 15.8316 16.6121 15.1984 16.2216 14.8079L14.8323 13.4187ZM17.4998 21.5C17.4998 20.9477 17.052 20.5 16.4998 20.5C15.9475 20.5 15.4998 20.9477 15.4998 21.5V26.5C15.4998 27.0523 15.9475 27.5 16.4998 27.5C17.052 27.5 17.4998 27.0523 17.4998 26.5V25H18.4998V26.5C18.4998 27.0523 18.9475 27.5 19.4998 27.5C20.052 27.5 20.4998 27.0523 20.4998 26.5V21.5C20.4998 20.9477 20.052 20.5 19.4998 20.5C18.9475 20.5 18.4998 20.9477 18.4998 21.5V23H17.4998V21.5ZM21.4998 21.5C21.4998 20.9477 21.9475 20.5 22.4998 20.5H25.4998C26.052 20.5 26.4998 20.9477 26.4998 21.5C26.4998 22.0523 26.052 22.5 25.4998 22.5H24.9998V25.5H25.4998C26.052 25.5 26.4998 25.9477 26.4998 26.5C26.4998 27.0523 26.052 27.5 25.4998 27.5H22.4998C21.9475 27.5 21.4998 27.0523 21.4998 26.5C21.4998 25.9477 21.9475 25.5 22.4998 25.5H22.9998V22.5H22.4998C21.9475 22.5 21.4998 22.0523 21.4998 21.5ZM31.4282 26.8714C31.2764 27.251 30.9087 27.5 30.4998 27.5C30.0909 27.5 29.7231 27.251 29.5713 26.8714L27.5713 21.8714C27.3662 21.3586 27.6156 20.7766 28.1284 20.5715C28.6411 20.3664 29.2231 20.6158 29.4282 21.1286L30.4998 23.8074L31.5713 21.1286C31.7764 20.6158 32.3584 20.3664 32.8711 20.5715C33.3839 20.7766 33.6333 21.3586 33.4282 21.8714L31.4282 26.8714Z" fill="black"/>
<path fill-rule="evenodd" clip-rule="evenodd" d="M20.9998 5C20.9998 4.44772 21.4475 4 21.9998 4H25.9998C26.552 4 26.9998 4.44772 26.9998 5C26.9998 5.55228 26.552 6 25.9998 6H24.9998V8C24.9998 8.55228 24.552 9 23.9998 9C23.4475 9 22.9998 8.55228 22.9998 8V6H21.9998C21.4475 6 20.9998 5.55228 20.9998 5Z" fill="black"/>
<path fill-rule="evenodd" clip-rule="evenodd" d="M23.9998 39C24.552 39 24.9998 39.4477 24.9998 40V42H25.9998C26.552 42 26.9998 42.4477 26.9998 43C26.9998 43.5523 26.552 44 25.9998 44H21.9998C21.4475 44 20.9998 43.5523 20.9998 43C20.9998 42.4477 21.4475 42 21.9998 42H22.9998V40C22.9998 39.4477 23.4475 39 23.9998 39Z" fill="black"/>
<path fill-rule="evenodd" clip-rule="evenodd" d="M12.686 39.5567C12.2955 39.9472 11.6624 39.9472 11.2718 39.5567L8.44341 36.7283C8.05288 36.3378 8.05288 35.7046 8.44341 35.3141C8.83393 34.9236 9.4671 34.9236 9.85762 35.3141L10.5647 36.0212L11.9789 34.607C12.3695 34.2164 13.0026 34.2164 13.3932 34.607C13.7837 34.9975 13.7837 35.6307 13.3932 36.0212L11.9789 37.4354L12.686 38.1425C13.0766 38.533 13.0766 39.1662 12.686 39.5567Z" fill="black"/>
<path fill-rule="evenodd" clip-rule="evenodd" d="M34.6064 13.3938C34.2158 13.0032 34.2158 12.3701 34.6064 11.9796L36.0206 10.5653L35.3135 9.85823C34.9229 9.46771 34.9229 8.83454 35.3135 8.44402C35.704 8.0535 36.3372 8.0535 36.7277 8.44402L39.5561 11.2724C39.9466 11.663 39.9466 12.2961 39.5561 12.6867C39.1656 13.0772 38.5324 13.0772 38.1419 12.6867L37.4348 11.9796L36.0206 13.3938C35.63 13.7843 34.9969 13.7843 34.6064 13.3938Z" fill="black"/>
<path fill-rule="evenodd" clip-rule="evenodd" d="M4.99976 27C4.44747 27 3.99976 26.5523 3.99976 26V22C3.99976 21.4477 4.44747 21 4.99976 21C5.55204 21 5.99976 21.4477 5.99976 22V23H7.99976C8.55204 23 8.99976 23.4477 8.99976 24C8.99976 24.5523 8.55204 25 7.99976 25H5.99976V26C5.99976 26.5523 5.55204 27 4.99976 27Z" fill="black"/>
<path fill-rule="evenodd" clip-rule="evenodd" d="M38.9998 24C38.9998 23.4477 39.4475 23 39.9998 23H41.9998V22C41.9998 21.4477 42.4475 21 42.9998 21C43.552 21 43.9998 21.4477 43.9998 22V26C43.9998 26.5523 43.552 27 42.9998 27C42.4475 27 41.9998 26.5523 41.9998 26V25H39.9998C39.4475 25 38.9998 24.5523 38.9998 24Z" fill="black"/>
<path fill-rule="evenodd" clip-rule="evenodd" d="M8.44341 12.6866C8.05288 12.2961 8.05288 11.6629 8.44341 11.2724L11.2718 8.44396C11.6624 8.05343 12.2955 8.05343 12.686 8.44396C13.0766 8.83448 13.0766 9.46765 12.686 9.85817L11.9789 10.5653L13.3932 11.9795C13.7837 12.37 13.7837 13.0032 13.3932 13.3937C13.0026 13.7842 12.3695 13.7842 11.9789 13.3937L10.5647 11.9795L9.85762 12.6866C9.46709 13.0771 8.83393 13.0771 8.44341 12.6866Z" fill="black"/>
<path fill-rule="evenodd" clip-rule="evenodd" d="M34.6064 34.6069C34.9969 34.2164 35.63 34.2164 36.0206 34.6069L37.4348 36.0211L38.1419 35.314C38.5324 34.9235 39.1656 34.9235 39.5561 35.314C39.9466 35.7045 39.9466 36.3377 39.5561 36.7282L36.7277 39.5567C36.3372 39.9472 35.704 39.9472 35.3135 39.5567C34.9229 39.1661 34.9229 38.533 35.3135 38.1424L36.0206 37.4353L34.6064 36.0211C34.2158 35.6306 34.2158 34.9974 34.6064 34.6069Z" fill="black"/>
</svg>

<svg
  xmlns="http://www.w3.org/2000/svg"
  width="24"
  height="24"
  viewBox="0 0 24 24"
  fill="none"
  stroke="currentColor"
  stroke-width="2"
  stroke-linecap="round"
  stroke-linejoin="round"
>
  <path
    fill-rule="evenodd"
    d="M14.832 13.419A13.94 13.94 0 0 1 23 10.035V12a1 1 0 0 0 2 0v-1.965a13.94 13.94 0 0 1 8.167 3.383l-1.39 1.39a1 1 0 0 0 1.415 1.414l1.39-1.39A13.94 13.94 0 0 1 37.964 23H36a1 1 0 0 0 0 2h1.965a13.94 13.94 0 0 1-3.384 8.167l-1.389-1.389a1 1 0 0 0-1.414 1.414l1.389 1.39A13.94 13.94 0 0 1 25 37.964V36a1 1 0 1 0-2 0v1.965a13.94 13.94 0 0 1-8.167-3.383l1.389-1.39a1 1 0 0 0-1.415-1.413l-1.389 1.388A13.94 13.94 0 0 1 10.035 25H12a1 1 0 1 0 0-2h-1.965a13.94 13.94 0 0 1 3.383-8.167l1.39 1.39a1 1 0 0 0 1.414-1.415zM17.5 21.5a1 1 0 0 0-2 0v5a1 1 0 1 0 2 0V25h1v1.5a1 1 0 1 0 2 0v-5a1 1 0 0 0-2 0V23h-1zm4 0a1 1 0 0 1 1-1h3a1 1 0 0 1 0 2H25v3h.5a1 1 0 0 1 0 2h-3a1 1 0 1 1 0-2h.5v-3h-.5a1 1 0 0 1-1-1m9.928 5.371a1 1 0 0 1-1.857 0l-2-5a1 1 0 0 1 1.857-.742l1.072 2.678 1.071-2.678a1 1 0 1 1 1.857.742z"
    clip-rule="evenodd"
  />
  <path
    fill-rule="evenodd"
    d="M21 5a1 1 0 0 1 1-1h4a1 1 0 0 1 0 2h-1v2a1 1 0 0 1-2 0V6h-1a1 1 0 0 1-1-1"
    clip-rule="evenodd"
  />
  <path
    fill-rule="evenodd"
    d="M24 39a1 1 0 0 1 1 1v2h1a1 1 0 0 1 0 2h-4a1 1 0 1 1 0-2h1v-2a1 1 0 0 1 1-1"
    clip-rule="evenodd"
  />
  <path
    fill-rule="evenodd"
    d="M12.686 39.557a1 1 0 0 1-1.414 0l-2.829-2.829a1 1 0 1 1 1.415-1.414l.707.707 1.414-1.414a1 1 0 1 1 1.414 1.414l-1.414 1.414.707.707a1 1 0 0 1 0 1.415"
    clip-rule="evenodd"
  />
  <path
    fill-rule="evenodd"
    d="M34.606 13.394a1 1 0 0 1 0-1.414l1.415-1.415-.708-.707a1 1 0 1 1 1.415-1.414l2.828 2.828a1 1 0 0 1-1.414 1.415l-.707-.707-1.414 1.414a1 1 0 0 1-1.415 0"
    clip-rule="evenodd"
  />
  <path
    fill-rule="evenodd"
    d="M5 27a1 1 0 0 1-1-1v-4a1 1 0 1 1 2 0v1h2a1 1 0 1 1 0 2H6v1a1 1 0 0 1-1 1"
    clip-rule="evenodd"
  />
  <path
    fill-rule="evenodd"
    d="M39 24a1 1 0 0 1 1-1h2v-1a1 1 0 1 1 2 0v4a1 1 0 0 1-2 0v-1h-2a1 1 0 0 1-1-1"
    clip-rule="evenodd"
  />
  <path
    fill-rule="evenodd"
    d="M8.443 12.687a1 1 0 0 1 0-1.415l2.829-2.828a1 1 0 1 1 1.414 1.414l-.707.707 1.414 1.415a1 1 0 0 1-1.414 1.414l-1.414-1.415-.707.708a1 1 0 0 1-1.415 0"
    clip-rule="evenodd"
  />
  <path
    fill-rule="evenodd"
    d="M34.606 34.607a1 1 0 0 1 1.415 0l1.414 1.414.707-.707a1 1 0 0 1 1.414 1.414l-2.828 2.829a1 1 0 0 1-1.415-1.415l.708-.707-1.415-1.414a1 1 0 0 1 0-1.414"
    clip-rule="evenodd"
  />
</svg>
